X:5076
T:Margorie McCall's
M:4/4
R:Reel
L:1/8
Q:180
C:Aidan Crossey
K:D
FG|Adcd Bdcd|edcd fdcd|Adcd BAGF|E2EF E2FG|
Adcd Bdcd|edcd fdcd|Adcd BAGF|EDCE D2FG||
Addc BGBd|cAce fedc|Bece dcde|fdcB A2FG|
Addc BGBd|cAce fedc|Bece dABG|EDCE D2||
